X: 5
T:Meg Merriless. ST.05
T:Persian Hunt,aka. ST.05
T:Boyne Hunt,aka. ST.05
M:2/4
L:1/8
Q:300
C:Persian Hunt,Boyne Hunt
S:Annonymous Staffordshire MS, Early 19thC.
R:Reel
O:England
A:Staffordshire
N:The way this has been strangely written down with what would normally
N:be considered to be inappropriate bar lines, lead in notes, and
N:incorrect spelling of Meg Merrilees, strongly suggests to me that this
N:has been attempted from memory rather than sloppy copying, and
N:indicates that the author of the MS has a "consumer's" knowledge of
N:music notation. CGP
Z:vmp.Tim Willets
K:D
"unedited"A2FA|DAFA|DAFA|BEEc|"Incomplete"A2FA|D||!
a2|f/2e/2d ad|bdad|f/2e/2d af|beea|!
f/2e/2d ad|bdad|A>B de|fdd a|!
f/2e/2d ad|bdad|f/2e/2d af|bee g|!
fadf|gb e>f|A>B de|fdd|]
